X:1
T:Jesu, Joy of Man's Desiring, BWV 147 (No. 10)
T:Johan Sebastian Bach
%%score { ( 1 3 ) | 2 } 4 5
L:1/8
Q:1/4=65
M:3/4
K:G
V:1 treble nm="Piano" snm="Pno."
V:3 treble 
V:2 bass 
V:4 treble nm="Voice" snm="Vo."
V:5 bass transpose=-12 nm="Acoustic Bass" snm="Bass"
V:1
!mp! (3z GA (3Bdc (3ced | (3dgf (3gdB (3GAB | (3cde (3dcB (3ABG | (3FGA (3DFA (3cBA | %4
 (3BGA (3Bdc (3ced | (3dgf (3gdB (3GAB | (3Edc (3BAG (3DGF | (3GBd (3gdB (3GBd | B,4 C2 | D4 D2 | %10
 C4 B,2 | (3A,DE (3FAG (3AcB | (3cAF (3DFA (3cBA | (3BGA (3Bdc (3ced | (3dgf (3gdB (3GAB | %15
 (3Edc (3BAG (3DGF"^D" | (3GBA (3Bdc (3ced | (3dgf (3gdB (3GAB | (3cde (3dcB (3ABG | %19
 (3FGA (3DFA (3cBA | (3BGA (3Bdc (3ced | (3dgf (3gdB (3GAB | (3Edc (3BAG (3DGF | B,4 C2 | D4 D2 | %25
 C4 B,2 | (3z DE (3FAG (3AcB | (3cAF (3DFA (3cBA | (3BGA (3Bdc (3ced | (3dgf (3gdB (3GAB | %30
 (3Edc (3BAG (3DGF | (3GBA (3Bdc (3ced | (3dgf (3gdB (3GAB | (3cde (3dcB (3ABG | %34
 (3FGA (3DFA (3cBA | (3BGA (3Bdc (3ced | (3dgf (3gdB (3GAB | (3Edc (3BAG (3DGF | %38
 (3GBd (3gdB (3GB^c | (3dDE (3FA^G (3GBA | (3AcB (3cAE (3CDE | (3^Edc (3dB^G (3=EFG | %42
 (3AcB (3ced (3d=fe | (3ea^g (3aec (3ABc | (3=fed (3cBA (3EA^G | (3Ace a z z2 | %46
 (3z cd (3eg=f (3g_ba | (3ac'=b (3c'a=f (3def | (3eg=f (3gec (3GA_B | (3Ac=B (3cA=F (3DE=F | %50
 (3ECD (3EG^F (3GBA | (3BGA (3Bdc (3ced | (3dgf (3gdB (3GAB | (3cde (3dcB (3ABG | %54
 (3FDE (3FAG (3A=cB | (3cAF (3DFA (3cBA | (3BGA (3Bdc (3ced | (3dgf (3gdB (3GAB | %58
 (3Edc (3BAG (3DGF | (3GBd (3gdB (3GBd | (3=fdB (3GBd (3ecA"^Am7/G" | (3^FAc (3dBG (3EGB | %62
 (3cAF (3DFA (3cBA | (3BGA (3Bdc (3ced | (3dgf (3gdB (3GAB | (3cde (3dcB (3ABG | %66
 (3FGA (3DFA (3cBA | (3BGA (3Bdc (3ced | (3dgf (3gdB (3GAB | %69
[Q:1/4=60]"_rit." (3Edc[Q:1/4=50] (3BAG[Q:1/4=31] (3DGF | G6 |] %71
V:2
"^G" G,,2 G,2"^C/E" E,2 |"^G/B" B,,2"^Em" E,2 E,,2 |"^Am" A,,2"^G/B" B,,2"^C" C,2 | %3
"^D" D,2 F,2 D,2 |"^G" G,2"^Em" E,2"^C" C,2 |"^G/B" B,,2"^Em" E,2 D,2 | %6
"^Am/C" C,2"^A/C#" ^C,2"^D7" D,2 |"^G" G,,2- (3:2:2G,,2 G, (3:2:2D,2 B,, |"^G" G,2 F,2"^C/E" E,2 | %9
"^D/F#" F,2 E,2 D,2 |"^C/E" E,2"^D/F#" F,2"^G" G,2 |"^D" D,2- (3:2:2D,2 D, (3:2:2D,2 D, | %12
"^D7" D,,2- (3:2:2D,,2 D, (3:2:2D,2 D, |"^G" G,2 F,2"^C/E" E,2 |"^G/B" B,2 B,,2"^Em" E,2 | %15
"^Am/E" A,B,/C/ B,2 A,2 |"^G" G,4"^C" C,2 |"^G/B" B,,2"^Em" E,2"^Am/E" E,,2 | %18
"^Am" A,,2"^G/B" B,,2"^Am/C" C,2 |"^D" D,2 F,2"^D7" D,2 |"^G" G,2 E,2"^C" C,2 | %21
"^G/B" B,,2"^Em" E,2 D,2 |"^Am/C" C,2"^A/C#" ^C,2"^D7" D,2 |"^G" G,2 F,2"^C/E" E,2 | %24
"^D/F#" F,2 E,2 D,2 |"^C/E" E,2"^D/F#" F,2"^G" G,2 |"^D" D,2- (3:2:2D,2 D, (3:2:2D,2 D, | %27
"^D7" D,,2- (3:2:2D,,2 D, (3:2:2D,2 D, |"^G" G,2 F,2"^C/E" E,2 |"^Bm" B,2 B,,2"^Em" E,2 | %30
"^Am/C" A,B,/C/"^G" B,2"^D" A,2 |"^G" G,4"^C" C,2 |"^G/B" B,,2"^Em" E,2"^Am/E" E,,2 | %33
"^Am" A,,2"^G/B" B,,2"^Am/C" C,2 |"^D" D,2 F,2 D,2 |"^G" G,2 E,2"^C/E" C,2 | %36
"^G/B" B,,2"^Em" E,2 D,2 |"^Am/C" C,2"^A/C#" ^C,2"^D" D,2 |"^G" G,,2- (3:2:2G,,2 G, (3:2:2F,2 E, | %39
"^D" D,2 =C,2"^G/B" B,,2 |"^Am" A,,2 (A,G,)"^F" =F,E, |"^Bo/D" B,2"^E/B" B,C/D/"^E" B,2 | %42
"^Am" A,,2"^F" A,,2"^Dm" =F,,2 |"^Am/C" C,2"^F" =F,2"^Am/E" E,2 |"^Dm" D,2"^D#o" ^D,2"^E" E,2 | %45
"^Am" A,2 A,,2"^G/B" B,2 |"^C" C2"^Am" A,2"^Am/E" E,2 |"^Dm/F" D2-"^Dm" DE/=F/"^G" D2 | %48
"^C" E,2- E,2 C,2 |"^F" =F,2"^Dm" D,2"^G" G,2 |"^C" C,2- (3:2:2C,2"^D7" C,"^G" (3:2:2B,,2"^D" D, | %51
"^G" G,2 F,2"^C/E" E,2 |"^G/B" B,2 B,,2"^Em" B,2 |"^Am" C2"^G/B" G,2 E,2 |"^D" D,2 D,2 D,2 | %55
"^D7" D,,2- (3:2:2D,,2 D, (3:2:2D,2 D, |"^G" G,2 F,2"^C/E" E,2 |"^G/B" B,2 B,,2"^Em" E,2 | %58
"^Am/C" A,B,/C/"^D" B,2 A,2 |"^G" G,6 |"^G7" [G,,,G,,]6- |"^G" [G,,,G,,]2 [G,,,G,,]4- | %62
"^D7/G" [G,,,G,,]6 |"^G" G,,2 G,2 E,2 |"^G/B" B,,2"^Em" E,2"^Am/C" E,,2 | %65
"^Am" A,,2"^G/B" B,,2"^Am/C" C,2 |"^D" D,2 F,2 D,2 |"^G" G,2 E,2"^C/E" C,2 | %68
"^G/B" B,,2"^Em" E,2 D,2 |"^Am/C" C,2"^Am/C#" ^C,2"^D7" D,2 |"^G"!p! [G,,D,]6 |] %71
V:3
 x6 | x6 | x6 | x6 | x6 | x6 | x6 | x6 | x6 | x6 | x6 | x6 | x6 | x6 | x6 | x6 | x6 | x6 | x6 | %19
 x6 | x6 | x6 | x6 | x6 | x6 | x6 | x6 | x6 | x6 | x6 | x6 | x6 | x6 | x6 | x6 | x6 | x6 | x6 | %38
 x6 | x6 | x6 | x6 | x6 | x6 | x6 | x6 | x6 | x6 | x6 | x6 | x6 | x6 | x6 | x6 | x6 | x6 | x6 | %57
 x6 | x6 | x6 | x6 | x6 | x6 | x6 | x6 | x6 | x6 | x6 | x6 | x6 | [B,D]6 |] %71
V:4
!pp! [G,B,D]4 [CEG]2 | [G,B,D]2 [E,G,B,]4 | [A,CE]2 [G,B,D]2 [G,CE]2 | [D,F,A,]6 | %4
 [G,B,D]2 [E,G,B,]2 [G,CE]2 | [G,B,D]2 [E,G,B,]4 | [CEA]2 [^CEA]2 [=CDFA]2 | [G,B,D]6 | %8
 [G,B,D]4 [E,G,C]2 | [F,A,D]6 | [E,G,C]2 [F,A,D]2 [G,B,D]2 | [DFA]6 | [DFAc]6 | [G,B,D]4 [CEG]2 | %14
 [G,B,D]4 [E,G,B,]2 | [CEA]4 [DFA]2 | [G,B,D]4 [CEG]2 | [G,B,D]2 [E,G,B,]2 [A,CE]2 | %18
 [A,CE]2 [G,B,D]2 [CEA]2 | [DFA]4 [CDFA]2 | [G,B,D]4 [CEG]2 | [B,DG]2 [EGB]4 | %22
 [CEA]2 [^CEA]2 [=CDFA]2 | [GBd]4 [EGc]2 | [FAd]6 | [EGc]2 [FAd]2 [GBd]2 | [DFA]6 | [DFAc]6 | %28
 [GBd]4 [EGc]2 | [B,DF]4 [EGB]2 | [CEA]2 [GBd]2 [DFA]2 | [GBd]4 [EGc]2 | [B,DG]2 [EGB]2 [CEA]2 | %33
 [A,CE]2 [G,B,D]2 [CEA]2 | [DFA]6 | [GBd]4 [EGc]2 | [B,DG]2 [EGB]4 | [CEA]2 [^CEA]2 [DFA]2 | %38
 [GBd]6 | [DFA]4 [B,DG]2 | [A,CE]4 [=FAc]2 | [D=FB]2 [B,E^G]2 [EGB]2 | [A,CE]2 [=FAc]2 [DFA]2 | %43
 [CEA]2 [=FAc]2 [EAc]2 | [D=FA]2 [^D^FA]2 [E^GB]2 | [A,CE]4 [B,DG]2 | [CEG]2 [A,CE]2 [EAc]2 | %47
 [=FAd]2 [DFA]2 [GBd]2 | [CEG]6 | [=FAc]2 [DFA]2 [GBd]2 | %50
 [CEG]2- (3:2:2[CEG]2 [DFAc] (3:2:2[GBd]2 [DFA] | [GBd]4 [EGc]2 | [B,DG]4 [EGB]2 | %53
 [A,CE]2 [B,DG]4 | [DFA]6 | [DFAc]6 | [GBd]4 [EGc]2 | [B,DG]4 [EGB]2 | [CEA]2 [DFA]4 | [GBd]6 | %60
 [GBd=f]4 [GAce]2 | [GBd]6 | [G,DFAc]6 | [GBd]6 | [B,DG]2 [EGB]2 [CEA]2 | [A,CE]2 [B,DG]2 [CEA]2 | %66
 [DFA]6 | [GBd]4 [EGc]2 | [B,DG]2 [EGB]4 | [CEA]2 [^CEA]2 [DFAc]2 | [GBd]6 |] %71
V:5
!pp! G,,2 G,2 E,2 | B,,2 E,2 E,,2 | A,,2 B,,2 C,2 | D,2 F,2 D,2 | G,2 E,2 C,2 | B,,2 E,2 D,2 | %6
 C,2 ^C,2 D,2 | G,,2- (3:2:2G,,2 G, (3:2:2D,2 B,, | G,2 F,2 E,2 | F,2 E,2 D,2 | E,2 F,2 G,2 | %11
 D,2- (3:2:2D,2 D, (3:2:2D,2 D, | D,,2- (3:2:2D,,2 D, (3:2:2D,2 D, | G,2 F,2 E,2 | B,2 B,,2 E,2 | %15
 E,4 D,2 | G,4 C,2 | B,,2 E,2 E,,2 | A,,2 B,,2 C,2 | D,2 F,2 D,2 | G,2 E,2 C,2 | B,,2 E,2 D,2 | %22
 C,2 ^C,2 D,2 | G,2 F,2 E,2 | F,2 E,2 D,2 | E,2 F,2 G,2 | D,2- (3:2:2D,2 D, (3:2:2D,2 D, | %27
 D,,2- (3:2:2D,,2 D, (3:2:2D,2 D, | G,2 F,2 E,2 | B,2 B,,2 E,2 | E,2 D,4 | G,4 C,2 | %32
 B,,2 E,2 E,,2 | A,,2 B,,2 C,2 | D,2 F,2 D,2 | G,2 E,2 C,2 | B,,2 E,2 D,2 | C,2 ^C,2 D,2 | %38
 G,,2- (3:2:2G,,2 G, (3:2:2F,2 E, | D,2 =C,2 B,,2 | C4 C2 | D,2 B,,2 E,2 | A,,2 A,,2 =F,,2 | %43
 C,2 =F,2 E,2 | D,2 ^D,2 E,2 | A,2 A,,2 B,2 | C2 A,2 E,2 | =F,2 D,2 G,2 | E,4 C,2 | =F,2 D,2 G,2 | %50
 C,2- (3:2:2C,2 C, (3:2:2B,,2 D, | G,2 F,2 E,2 | B,2 B,,2 B,2 | C2 G,2 E,2 | D,2 D,2 D,2 | %55
 D,,2- (3:2:2D,,2 D, (3:2:2D,2 D, | G,2 F,2 E,2 | B,2 B,,2 E,2 | E,2 D,4 | G,6 | G,,6- | %61
 G,,2 G,,4- | G,,6 | G,,2 G,2 E,2 | B,,2 E,2 E,,2 | A,,2 B,,2 C,2 | D,2 F,2 D,2 | G,2 E,2 C,2 | %68
 B,,2 E,2 D,2 | C,2 ^C,2 D,2 |!p! G,,6 |] %71

